X: 41098
T: Trip To Sado, The
R: polka
M: 2/4
K: Eminor
G2 EG|DE GD|E/G/A GE|DG DE|AG/E/ GA|G/E/D GD/E/|GA/G/ EG|DE E2:|
BA/G/ AE|DE GE|GA/G/ ED/E/|GE AG|BA/G/ AE|DG EG|GE GE|DE E2|
BA/G/ AE|DG EG|GE GD|GE GG/E/|D/G/E D/E/G|EA GE|A/G/E GE|DE E2||

